X:1
T:Title
%%score { ( 1 3 ) | ( 2 4 ) }
L:1/8
M:6/8
K:F
V:1 treble nm="Grand Piano"
V:3 treble 
V:2 bass 
V:4 bass 
V:1
 z3 z2[Q:1/4=100] C | F2 A G2 F | z c2- c2 z | C2 [CEB] [CEA]2 G | A6 | [FBd]2 [FBd] [FB]2 [FBd] | %6
 c2- [Ac] A2 A | G2 D E2 F | [CEA]2 [CEG] E2 C | F2 A G2 F | z c2- c2 z | C2 [CEB] [CEA]2 [CEG] | %12
 A6 | [FBd]2 [FBd] [FBf]2 [FBd] |[M:7/8] [CFAc]2 A F3 G |[M:3/4] [CFA]2 [A,C] [CEA]2 [CEG] | %16
[M:5/8] [A,CF]-[A,CF]- [A,CF]3 |[M:4/4] Ac- c/A/c- c/A/c- c/A/G- | G/F/ [DG]2 D- D D3- | %19
 DE- E/[DF]/[EG]- [EG]/[FA]/[GB]- [GB]/[Ac]/[Bd]- |[M:7/8] [Bd]/[Be]/[Af]- [Af]3 [Ac]2- | %21
[M:1/8] [Ac] | A |[M:4/4] c>A c>A c>A G>F | [DG]2 [B,D]2 [Fd]4 | [Fd]>[Fc] [FA]>F D>E [EB]>[EA] | %26
[M:7/8] [EG]- [EG]3 z z2 |] %27
V:2
 z6 | [F,A,C]2 [F,A,CF] [G,B,CE]2 [F,A,C] | [C,E,G,B,C]2 [C,E,G,B,C] [C,E,G,B,C]2 [C,E,G,B,] | %3
 [C,E,G,B,]2 [C,E,G,B,] [C,E,G,B,]2 [E,G,B,CE] | [F,A,CF]2 [F,A,C] [F,A,C]2 [F,A,CF] | %5
 B,,2 [G,B,D] [F,B,D]2 [F,B,D] | [F,,F,]2 [F,A,F] [F,A,CF]2 [F,A,CF] | %7
 [G,=B,D]2 [G,B,] [G,C]2 [G,B,D] | [C,E,G,B,]2 [C,E,G,B,] [C,E,G,B,C]2 [C,E,G,B,] | %9
 [F,A,C]2 [F,A,CF] [G,B,CE]2 [F,A,C] | [C,E,G,B,C]2 [C,E,G,B,C] [C,E,G,B,C]2 [C,E,G,B,] | %11
 [C,E,G,B,]2 [C,E,G,B,] [C,E,G,B,]2 [C,E,G,B,] | [F,,F,]2 [F,A,C] [F,A,C]2 [F,A,CF] | %13
 [B,,B,]2 [F,B,D] [F,B,D]2 [F,B,D] |[M:7/8] [F,,F,]2 [F,A,CF] [^C,_A,=B,]3 [C,A,B,] | %15
[M:3/4] [C,F,A,]2 [C,F,] [C,E,G,B,]2 [C,E,G,B,] |[M:5/8] [F,,F,]-[F,,F,]- [F,,F,]3 | %17
[M:4/4] [F,CF][F,A,F]- [F,A,F]/[F,CF]/[F,A,F]- [F,A,F]/[F,CF]/[F,A,F]- [F,A,F]/[F,CF]/[F,B,E]- | %18
 [F,B,E]/[F,A,_E]/ [B,,B,]2 [B,,B,]- [B,,B,] [B,,B,]3- | %19
 [B,,B,][C,G,C]- [C,G,C]/[C,G,]/[C,C]- [C,C]/[C,C]/[C,C]- [C,C]/[C,C]/[C,C]- | %20
[M:7/8] [C,C]/[C,C]/[F,C]- [F,C]3 [F,F]2- |[M:1/8] [F,F] | [F,CF] | %23
[M:4/4] [F,A,F]>[F,CF] [F,A,F]>[F,CF] [F,A,F]>[F,CF] [F,B,E]>[F,A,_E] | %24
 [B,,B,]2 [B,,F,]2 [=B,,_A,]4 | [C,A,]>[C,A,] [C,A,]>[C,A,C] [C,G,B,]>[C,B,C] [C,G,]>[C,C] | %26
[M:7/8] C2 z2 [F,A,C]3 |] %27
V:3
 x6 | x6 | .E2 E E2 C | x6 | z2 F F2 c | x6 | .[FA]3 z3 | x6 | x6 | x6 | .E2 E E2 C | x6 | %12
 [CF]2 F F2 c | x6 |[M:7/8] x7 |[M:3/4] x6 |[M:5/8] x5 |[M:4/4] x8 | x8 | x8 |[M:7/8] x7 | %21
[M:1/8] x | x |[M:4/4] x8 | x8 | x8 |[M:7/8] z2 B,2 F3 |] %27
V:4
 x6 | x6 | x6 | x6 | x6 | x6 | x6 | x6 | x6 | x6 | x6 | x6 | x6 | x6 |[M:7/8] x7 |[M:3/4] x6 | %16
[M:5/8] x5 |[M:4/4] x8 | x8 | x8 |[M:7/8] x7 |[M:1/8] x | x |[M:4/4] x8 | x8 | x8 | %26
[M:7/8] C,- C,3 z z2 |] %27

